src/assets/hackerrank.svg

<svg xmlns="http://www.w3.org/2000/svg" x="0px" y="0px"
width="32" height="32"
viewBox="0 0 32 32">
<path d="M 15.998047 3 C 14.225047 3 5.5352031 7.9839062 4.6582031 9.5039062 C 3.7802031 11.024906 3.7802031 20.983047 4.6582031 22.498047 C 5.5392031 24.017047 14.229047 29 15.998047 29 C 17.762047 29 26.451938 24.019953 27.335938 22.501953 C 28.222938 20.979953 28.222938 11.014047 27.335938 9.4980469 L 27.335938 9.4960938 C 26.444937 7.9790937 17.756047 3 15.998047 3 z M 15.996094 5.0117188 C 17.693094 5.3647187 24.417703 9.2167656 25.595703 10.509766 C 26.135703 12.150766 26.134703 19.844281 25.595703 21.488281 C 24.425703 22.779281 17.695094 26.636281 15.996094 26.988281 C 14.298094 26.638281 7.5723906 22.783234 6.4003906 21.490234 C 5.8653906 19.842234 5.8653906 12.155766 6.4003906 10.509766 C 7.5693906 9.2167656 14.297094 5.3617187 15.996094 5.0117188 z M 13 9 L 11 11 L 12 11 L 12 21 L 14 21 L 14 17 L 18 17 L 18 21 L 17 21 L 19 23 L 21 21 L 20 21 L 20 12 L 18 12 L 18 15 L 14 15 L 14 11 L 15 11 L 13 9 z"></path>
</svg>

<svg xmlns="http://www.w3.org/2000/svg" x="0px" y="0px"
width="32" height="32"
viewBox="0,0,256,256"
style="fill:#000000;">
<g fill="#ffffff" fill-rule="nonzero" stroke="none" stroke-width="1" stroke-linecap="butt" stroke-linejoin="miter" stroke-miterlimit="10" stroke-dasharray="" stroke-dashoffset="0" font-family="none" font-weight="none" font-size="none" text-anchor="none" style="mix-blend-mode: normal"><g transform="scale(8,8)"><path d="M15.99805,3c-1.773,0 -10.46284,4.98391 -11.33984,6.50391c-0.878,1.521 -0.878,11.47914 0,12.99414c0.881,1.519 9.57084,6.50195 11.33984,6.50195c1.764,0 10.45389,-4.98005 11.33789,-6.49805c0.887,-1.522 0.887,-11.48791 0,-13.00391v-0.00195c-0.891,-1.517 -9.57989,-6.49609 -11.33789,-6.49609zM15.99609,5.01172c1.697,0.353 8.42161,4.20505 9.59961,5.49805c0.54,1.641 0.539,9.33451 0,10.97852c-1.17,1.291 -7.90061,5.148 -9.59961,5.5c-1.698,-0.35 -8.4237,-4.20505 -9.5957,-5.49805c-0.535,-1.648 -0.535,-9.33447 0,-10.98047c1.169,-1.293 7.8967,-5.14805 9.5957,-5.49805zM13,9l-2,2h1v10h2v-4h4v4h-1l2,2l2,-2h-1v-9h-2v3h-4v-4h1z"></path></g></g>
</svg>
